X:1
T:Title
%%score { ( 1 4 ) | ( 2 3 ) }
L:1/8
Q:1/4=106
M:4/4
K:C
V:1 treble nm="Grand Piano"
V:4 treble 
V:2 bass 
V:3 bass 
V:1
 [cegc']2 [cegc'][egc'] [Begb]2 [Begb][gb] | z4 [GBdfg]4 | %2
w: C.~Harold~Lowden * * * * *||
 [cegc']2 [cegc'][gc'] [Begb]2 [Begb][gb] | z4 [dgbd']4 | %4
w: ||
 [e^gbe']2 [egbe'][be'] [dgbd']2 [dgbd'][bd'] | [ceac']2 [ceac'][ac'] z2 _E2 | %6
w: ||
 [Gceg]2 [Acea]2 [Begb]2 [cegc']2 | [fa]4 z4[K:bass] | [Gceg]2 [Acea]2 [Begb]2 [cegc']2 | %9
w: |||
 [Ad]2- [A-cd-c']2 [ABdb]2 [Aa]2 | [GBdfa]2 [ABdfa]2 [Bdfgb]2 [dfbd']2 | %11
w: ||
 [ceg]2- [Eceg]2 [Bdf]2 [Bdfg]2 | [Gceg]2 [fgc'e']2 [Bdfgb]2 [cegc']2 | %13
w: ||
 [DFAd]2 [cfac']2 [B_e^fb]2 [Aefa]2 | [Gceg]2 [Acea]2 [cfac']2 [dfgbd']2 | [cegc']6[K:bass] z2 |] %16
w: |||
V:2
 z2 [G,CE]2[K:treble][K:bass] z2 [G,CE]2[K:treble] | [D,,D,]2 [A,DFA]2 [G,,,G,,]2 [G,B,]2 | %2
 z2[K:treble] [G,CE]2[K:bass] z2 [G,CE]2[K:treble] | [D,,D,]2 [^F,A,CD]2 [G,,,G,,]2 [G,B,]2 | %4
 [E,,E,]2[K:treble] z [e^g][K:bass] [^G,,^G,]2 z[K:treble] [dg] | z2 [A,CE]2[K:treble][K:bass] z4 | %6
 [G,,G,]2 [G,CE]2 [E,,E,]2 [G,CE]2 | [G,,,G,,]2[K:treble] [A,C]2 [G,B,DF]2 z2 | %8
 [C,,C,]2 [G,CE]2 E,,2 [G,CE]2 | z2 [DF]4 z2 | [G,,,G,,]2 [G,B,DF]2 [D,,D,]2 [G,B,DF]2 | %11
 [E,,E,]2 [G,C]2 [D,,D,]2 [G,B,DFG]2 | C,,2 [G,CE]2 [D,,D,]2 [E,,E,]2 | %13
 [F,,F,]2 [A,DF]2 [^F,,F,]2 [F,A,C_E]2 | [G,,G,]2 [G,CE]2 [G,,G,]2 [G,B,DF]2 | %15
 [C,,C,]2 [G,C]2 C,,2 z2 |] %16
V:3
 [C,,C,]2 z[K:treble] c[K:bass] E,,2 z[K:treble] [Be] | x8 | %2
 [C,,C,]2[K:treble] z [ce][K:bass] [E,,E,]2 z[K:treble] [Be] | x8 | %4
 z2[K:treble] [^G,B,E]2[K:bass] z2 [G,B,E]2[K:treble] | %5
 [A,,A,]2 z[K:treble] [ce][K:bass] [A,,^G,]2 [G,C]2 | x8 | x2[K:treble] x6 | x8 | %9
 [F,,F,]2 A,2 [D,,D,]2 [A,DF]2 | x8 | x8 | x8 | x8 | x8 | x8 |] %16
V:4
 x8 | [Acfa]2 [cfa]2 z2 [DF]2 | x8 | [Ad^fa]2 [dfac'd']2 z2 D2 | x8 | z4 [c_e^gc']4 | x8 | %7
 [dd']2- [Fd-d'-]2 [dfgbd']2[K:bass] [G,,,G,,]2 | x8 | [DF]2 z2 z4 | x8 | G6 z2 | x8 | x8 | x8 | %15
 z2 E2[K:bass] C,2 z2 |] %16

